X: 18136
T: Humours Of Castlefin, The
R: reel
M: 4/4
K: Gmajor
BE PE2 BEGB|AD PD2 FGAd|BE PE2 BGAF|GBAF E2GA|
BE PE2 BEGB|AD PD2 FGAd|BE PE2 BGAF|GBAF E2GA||
Beed egfe|defa afed|Beed efgb|agfa geed|
Beed egfe|defg agfd|efga bagf|egfd Pe3d||

